flutter/assets/jade_front_unlock.svg

<svg width="178" height="90.499" version="1.1" viewBox="0 0 47.096 23.945" xml:space="preserve" xmlns="http://www.w3.org/2000/svg"><g transform="translate(-38.939 -130.27)"><g transform="matrix(.26458 0 0 .26458 38.939 130.13)" fill="#00c5ff"><path d="m1 18.999 3e-6 63c0 4.4183 3.5817 8 8 8h160c4.418 0 8-3.5817 8-8v-63c0-4.4183-3.582-8-8-8h-160c-4.4183 0-8 3.5817-8 8zm-1 63c2.1727e-7 4.9706 4.0294 9 9 9h160c4.971 0 9-4.0294 9-9v-63c0-4.9705-4.029-9-9-9l-160 1e-5c-4.9706 0-9 4.0295-9 9z" clip-rule="evenodd" fill-rule="evenodd"/><path d="m155.46 67.814h-8.365v-1.7623h8.497c2.939 0 4.409 1.3618 4.409 4.0854 0 0.7476-0.1 1.3684-0.301 1.8624l-1.338-0.2403c0.163-0.4406 0.245-0.9346 0.245-1.4819 0-0.8278-0.226-1.4419-0.678-1.8425-0.465-0.4139-1.288-0.6208-2.469-0.6208z"/><path d="m155.8 55.857v4.7863l3.994 1.4019v1.8023l-12.699-4.586v-2.1028l12.699-4.606v1.8624zm-1.282 4.4258v-4.0653l-3.655 1.3418c-0.502 0.1735-1.275 0.4005-2.317 0.6809v0.06c0.829 0.2003 1.595 0.4206 2.298 0.6609z"/><path d="m159.76 50.266h-12.491c-0.176-1.255-0.264-2.4967-0.264-3.725 0-2.4432 0.528-4.2656 1.583-5.4672 1.092-1.2816 2.612-1.9225 4.559-1.9225 2.072 0 3.718 0.6475 4.936 1.9426 1.219 1.3217 1.828 3.3177 1.828 5.9879 0 1.3217-0.05 2.3831-0.151 3.1842zm-11.285-1.7624h10.042c0.05-0.2937 0.075-0.8811 0.075-1.7623 0.013-1.8558-0.452-3.2776-1.394-4.2656s-2.274-1.482-3.994-1.482c-1.533-0.0133-2.732 0.4473-3.599 1.3819-0.867 0.9212-1.3 2.283-1.3 4.0853 0 0.8144 0.057 1.4953 0.17 2.0427z"/><path d="m152.48 29.62h1.356v5.2269h4.578v-5.8477h1.376v7.6101h-12.699v-7.3097h1.376v5.5473h4.013z"/><g clip-rule="evenodd" fill-rule="evenodd"><path d="m13 27.999v45c0 2.7614 2.2386 5 5 5h71c2.7614 0 5-2.2386 5-5v-45c0-2.7614-2.2386-5-5-5h-71c-2.7614 0-5 2.2386-5 5zm-1 45c0 3.3137 2.6863 6 6 6h71c3.3137 0 6-2.6863 6-6v-45c0-3.3137-2.6863-6-6-6h-71c-3.3137 0-6 2.6863-6 6z"/><path d="m108 27.999v45c0 2.7614 2.239 5 5 5h15c2.761 0 5-2.2386 5-5v-45c0-2.7614-2.239-5-5-5h-15c-2.761 0-5 2.2386-5 5zm-1 45c0 3.3137 2.686 6 6 6h15c3.314 0 6-2.6863 6-6v-45c0-3.3137-2.686-6-6-6h-15c-3.314 0-6 2.6863-6 6z"/><path d="m41.561 9.681c-0.0441 0.35717-0.061 0.72987-0.061 0.81797h-1c0-0.1341 0.0201-0.5481 0.0686-0.94056 0.0241-0.19531 0.0576-0.40572 0.1052-0.58058 0.0232-0.08551 0.0556-0.18469 0.1031-0.27537 0.0303-0.05799 0.1161-0.21193 0.2928-0.29744l1.9156-1.1051 0.0078-0.00388c0.0031-0.00272 0.0113-0.01052 0.0236-0.02689 0.023-0.03066 0.0496-0.07758 0.0747-0.14033 0.0402-0.10067 0.0632-0.20734 0.0716-0.28747l-0.663-2.1362v-0.0758c0-0.00972 0-0.01979-1e-4 -0.03018-8e-4 -0.20739-0.0021-0.54511 0.2947-0.84192l0.9629-0.96292c0.2968-0.29679 0.6346-0.29549 0.842-0.29469 0.0104 4e-5 0.0204 8e-5 0.0301 8e-5h0.0656l2.2727 0.60612c0.0034-4.2e-4 0.0076-0.00102 0.0125-0.00185 0.0368-0.00621 0.0896-0.02121 0.1497-0.04652 0.0595-0.02503 0.1136-0.05492 0.1543-0.08336 0.0221-0.0154 0.0347-0.02654 0.0408-0.03217l1.1017-1.9098 9e-3 -0.01347c0.1016-0.15239 0.2295-0.29389 0.4047-0.39123 0.1785-0.099187 0.3614-0.12774 0.5299-0.12774h1.2592c0.2808 0 0.7771 0.093882 0.9726 0.58285l1.0725 1.859c6e-3 0.00549 0.0182 0.01602 0.0391 0.0304 0.0402 0.02762 0.0947 0.05712 0.1571 0.08205 0.0623 0.02495 0.122 0.04116 0.1708 0.04847 0.0374 0.00561 0.0569 0.00432 0.0612 0.00405l2.1235-0.58584c0.1925-0.06148 0.3923-0.07023 0.5891-0.00463 0.1885 0.06286 0.3277 0.17903 0.4269 0.27818l0.9629 0.96293c0.2968 0.29679 0.2955 0.63455 0.2947 0.84193-1e-4 0.0104-1e-4 0.02047-1e-4 0.03019v0.0677l-0.6068 2.1997c-3e-4 0.00434-0.0016 0.02382 4e-3 0.06127 0.0073 0.04878 0.0235 0.10851 0.0485 0.17088 0.0249 0.06231 0.0544 0.11687 0.082 0.15701 0.0143 0.02086 0.0249 0.03304 0.0303 0.03899l1.8723 1.0801c0.1767 0.08551 0.2625 0.23944 0.2928 0.29744 0.0475 0.09067 0.0799 0.18986 0.1031 0.27536 0.0476 0.17487 0.0811 0.38527 0.1052 0.58058 0.0485 0.39247 0.0686 0.80647 0.0686 0.94057h-1c0-0.0881-0.0169-0.4608-0.061-0.81798-0.0222-0.17951-0.0489-0.33467-0.0778-0.44093-1e-3 -0.00366-0.0019-0.00718-0.0029-0.01054l-1.8443-1.064-0.0134-0.00892c-0.2356-0.15691-0.3949-0.43516-0.4834-0.65627-0.0894-0.22345-0.1695-0.54574-0.0949-0.84404l0.0029-0.01174 0.5746-2.0822c-2e-4 -0.0242-6e-4 -0.04418-0.0015-0.06255-9e-4 -0.0185-0.0021-0.03077-0.0032-0.03859l-0.9597-0.95971v0c-0.0091-0.00909-0.0168-0.01638-0.0233-0.02215l-2.1685 0.59826c-0.2983 0.07461-0.6207-0.00566-0.8441-0.09503-0.2211-0.08846-0.4993-0.24776-0.6562-0.4832l-9e-3 -0.01348-1.1432-1.9816c-0.0161-0.00266-0.0367-0.0045-0.0614-0.0045h-1.2592c-0.0262 0-0.04 0.00206-0.0456 0.00318-0.0066 0.00552-0.0231 0.02144-0.049 0.05877l-1.11 1.9242-9e-3 0.01348c-0.1555 0.23327-0.4313 0.39244-0.6387 0.47977-0.1158 0.04877-0.2435 0.08933-0.3711 0.1109-0.1124 0.01898-0.2727 0.03178-0.4346-0.01734l-2.1477-0.57278c-0.0252 2e-4 -0.0458 6.3e-4 -0.0647 0.00155-0.0185 9.1e-4 -0.0308 0.00212-0.0386 0.00316l-0.9566 0.95657c-1e-3 0.00782-0.0023 0.02009-0.0032 0.03859-8e-4 0.01633-0.0012 0.03393-0.0014 0.05463l0.6664 2.1473v0.07581c0 0.21648-0.051 0.48303-0.1469 0.72267-0.088 0.22-0.255 0.5205-0.5581 0.67936l-1.82 1.0499c-1e-3 0.00337-0.0019 0.00688-0.0029 0.01055-0.0289 0.10625-0.0556 0.26142-0.0778 0.44093z"/></g><path d="m34.064 54.206 2.3525-2.9327-3.416-0.9668 0.6445-1.8906 3.3516 1.332-0.2041-3.749h2.084l-0.2256 3.8242 3.2871-1.3212 0.6338 1.9228-3.4697 0.9668 2.2773 2.8682-1.6865 1.1816-1.9766-3.1367-1.9658 3.04z"/><path d="m44.404 54.206 2.3526-2.9327-3.4161-0.9668 0.6446-1.8906 3.3515 1.332-0.2041-3.749h2.084l-0.2256 3.8242 3.2871-1.3212 0.6338 1.9228-3.4697 0.9668 2.2773 2.8682-1.6865 1.1816-1.9765-3.1367-1.9659 3.04z"/><path d="m54.744 54.206 2.3526-2.9327-3.416-0.9668 0.6445-1.8906 3.3516 1.332-0.2041-3.749h2.0839l-0.2255 3.8242 3.2871-1.3212 0.6338 1.9228-3.4698 0.9668 2.2774 2.8682-1.6865 1.1816-1.9766-3.1367-1.9658 3.04z"/><path d="m65.084 54.206 2.3525-2.9327-3.416-0.9668 0.6445-1.8906 3.3516 1.332-0.2041-3.749h2.084l-0.2256 3.8242 3.2871-1.3212 0.6338 1.9228-3.4697 0.9668 2.2773 2.8682-1.6865 1.1816-1.9766-3.1367-1.9658 3.04z"/></g></g></svg>

<svg width="178" height="91" viewBox="0 0 178 91" fill="none" xmlns="http://www.w3.org/2000/svg">
<path fill-rule="evenodd" clip-rule="evenodd" d="M0.999997 18.999L1 81.999C1 86.4173 4.58172 89.999 9 89.999L169 89.999C173.418 89.999 177 86.4173 177 81.999L177 18.999C177 14.5807 173.418 10.999 169 10.999L9 10.999C4.58172 10.999 0.999997 14.5807 0.999997 18.999ZM-3.93402e-07 81.999C-1.76132e-07 86.9696 4.02944 90.999 9 90.999L169 90.999C173.971 90.999 178 86.9696 178 81.999L178 18.999C178 14.0285 173.971 9.99902 169 9.99902L9 9.99903C4.02943 9.99903 -3.36449e-06 14.0285 -3.14722e-06 18.999L-3.93402e-07 81.999Z" fill="#00C5FF"/>
<path d="M155.459 67.8135L147.094 67.8135L147.094 66.0512L155.591 66.0512C158.53 66.0512 160 67.413 160 70.1366C160 70.8842 159.9 71.505 159.699 71.999L158.361 71.7587C158.524 71.3181 158.606 70.8241 158.606 70.2768C158.606 69.449 158.38 68.8349 157.928 68.4343C157.463 68.0204 156.64 67.8135 155.459 67.8135Z" fill="#00C5FF"/>
<path d="M155.799 55.8572L155.799 60.6435L159.793 62.0454L159.793 63.8477L147.094 59.2617L147.094 57.1589L159.793 52.5529L159.793 54.4153L155.799 55.8572ZM154.517 60.283L154.517 56.2177L150.862 57.5595C150.36 57.733 149.587 57.96 148.545 58.2404L148.545 58.3004C149.374 58.5007 150.14 58.721 150.843 58.9613L154.517 60.283Z" fill="#00C5FF"/>
<path d="M159.755 50.2656L147.264 50.2656C147.088 49.0106 147 47.7689 147 46.5406C147 44.0974 147.528 42.275 148.583 41.0734C149.675 39.7918 151.195 39.1509 153.142 39.1509C155.214 39.1509 156.86 39.7984 158.078 41.0935C159.297 42.4152 159.906 44.4112 159.906 47.0814C159.906 48.4031 159.856 49.4645 159.755 50.2656ZM148.47 48.5032L158.512 48.5032C158.562 48.2095 158.587 47.6221 158.587 46.7409C158.6 44.8851 158.135 43.4633 157.193 42.4753C156.251 41.4873 154.919 40.9933 153.199 40.9933C151.666 40.98 150.467 41.4406 149.6 42.3752C148.733 43.2964 148.3 44.6582 148.3 46.4605C148.3 47.2749 148.357 47.9558 148.47 48.5032Z" fill="#00C5FF"/>
<path d="M152.483 29.6198L153.839 29.6198L153.839 34.8467L158.417 34.8467L158.417 28.999L159.793 28.999L159.793 36.6091L147.094 36.6091L147.094 29.2994L148.47 29.2994L148.47 34.8467L152.483 34.8467L152.483 29.6198Z" fill="#00C5FF"/>
<path fill-rule="evenodd" clip-rule="evenodd" d="M13 27.999L13 72.999C13 75.7604 15.2386 77.999 18 77.999L89 77.999C91.7614 77.999 94 75.7604 94 72.999L94 27.999C94 25.2376 91.7614 22.999 89 22.999L18 22.999C15.2386 22.999 13 25.2376 13 27.999ZM12 72.999C12 76.3127 14.6863 78.999 18 78.999L89 78.999C92.3137 78.999 95 76.3127 95 72.999L95 27.999C95 24.6853 92.3137 21.999 89 21.999L18 21.999C14.6863 21.999 12 24.6853 12 27.999L12 72.999Z" fill="#00C5FF"/>
<path fill-rule="evenodd" clip-rule="evenodd" d="M108 27.999L108 72.999C108 75.7604 110.239 77.999 113 77.999L128 77.999C130.761 77.999 133 75.7604 133 72.999L133 27.999C133 25.2376 130.761 22.999 128 22.999L113 22.999C110.239 22.999 108 25.2376 108 27.999ZM107 72.999C107 76.3127 109.686 78.999 113 78.999L128 78.999C131.314 78.999 134 76.3127 134 72.999L134 27.999C134 24.6853 131.314 21.999 128 21.999L113 21.999C109.686 21.999 107 24.6853 107 27.999L107 72.999Z" fill="#00C5FF"/>
<path fill-rule="evenodd" clip-rule="evenodd" d="M41.561 9.68103C41.5169 10.0382 41.5 10.4109 41.5 10.499L40.5 10.499C40.5 10.3649 40.5201 9.9509 40.5686 9.55844C40.5927 9.36313 40.6262 9.15272 40.6738 8.97786C40.697 8.89235 40.7294 8.79317 40.7769 8.70249C40.8072 8.6445 40.893 8.49056 41.0697 8.40505L42.9853 7.29996L42.9931 7.29608C42.9962 7.29336 43.0044 7.28556 43.0167 7.26919C43.0397 7.23853 43.0663 7.19161 43.0914 7.12886C43.1316 7.02819 43.1546 6.92152 43.163 6.84139L42.5 4.70523L42.5 4.62943C42.5 4.61971 42.5 4.60964 42.4999 4.59925C42.4991 4.39186 42.4978 4.05414 42.7946 3.75733L43.7575 2.79441C44.0543 2.49762 44.3921 2.49892 44.5995 2.49972C44.6099 2.49976 44.6199 2.4998 44.6296 2.4998L44.6952 2.4998L46.9679 3.10592C46.9713 3.1055 46.9755 3.1049 46.9804 3.10407C47.0172 3.09786 47.07 3.08286 47.1301 3.05755C47.1896 3.03252 47.2437 3.00263 47.2844 2.97419C47.3065 2.95879 47.3191 2.94765 47.3252 2.94202L48.4269 1.03225L48.4359 1.01878C48.5375 0.86639 48.6654 0.724887 48.8406 0.627553C49.0191 0.528366 49.202 0.499813 49.3705 0.499813L50.6297 0.499813C50.9105 0.499813 51.4068 0.593695 51.6023 1.08266L52.6748 2.9417C52.6808 2.94719 52.693 2.95772 52.7139 2.9721C52.7541 2.99972 52.8086 3.02922 52.871 3.05415C52.9333 3.0791 52.993 3.09531 53.0418 3.10262C53.0792 3.10823 53.0987 3.10694 53.103 3.10667L55.2265 2.52083C55.419 2.45935 55.6188 2.4506 55.8156 2.5162C56.0041 2.57906 56.1433 2.69523 56.2425 2.79438L57.2054 3.75731C57.5022 4.0541 57.5009 4.39186 57.5001 4.59924C57.5 4.60964 57.5 4.61971 57.5 4.62943L57.5 4.69713L56.8932 6.89681C56.8929 6.90115 56.8916 6.92063 56.8972 6.95808C56.9045 7.00686 56.9207 7.06659 56.9457 7.12896C56.9706 7.19127 57.0001 7.24583 57.0277 7.28597C57.042 7.30683 57.0526 7.31901 57.058 7.32496L58.9303 8.40505C59.107 8.49056 59.1928 8.64449 59.2231 8.70249C59.2706 8.79316 59.303 8.89235 59.3262 8.97785C59.3738 9.15272 59.4073 9.36312 59.4314 9.55843C59.4799 9.9509 59.5 10.3649 59.5 10.499L58.5 10.499C58.5 10.4109 58.4831 10.0382 58.439 9.68102C58.4168 9.50151 58.3901 9.34635 58.3612 9.24009C58.3602 9.23643 58.3593 9.23291 58.3583 9.22955L56.514 8.16556L56.5006 8.15664C56.265 7.99973 56.1057 7.72148 56.0172 7.50037C55.9278 7.27692 55.8477 6.95463 55.9223 6.65633L55.9252 6.64459L56.4998 4.56239C56.4996 4.53819 56.4992 4.51821 56.4983 4.49984C56.4974 4.48134 56.4962 4.46907 56.4951 4.46125L55.5354 3.50154C55.5354 3.50153 55.5354 3.50154 55.5354 3.50154C55.5263 3.49245 55.5186 3.48516 55.5121 3.47939L53.3436 4.07765C53.0453 4.15226 52.7229 4.07199 52.4995 3.98262C52.2784 3.89416 52.0002 3.73486 51.8433 3.49942L51.8343 3.48594L50.6911 1.50431C50.675 1.50165 50.6544 1.49981 50.6297 1.49981L49.3705 1.49981C49.3443 1.49981 49.3305 1.50187 49.3249 1.50299C49.3183 1.50851 49.3018 1.52443 49.2759 1.56176L48.1659 3.48594L48.1569 3.49942C48.0014 3.73269 47.7256 3.89186 47.5182 3.97919C47.4024 4.02796 47.2747 4.06852 47.1471 4.09009C47.0347 4.10907 46.8744 4.12187 46.7125 4.07275L44.5648 3.49997C44.5396 3.50017 44.519 3.5006 44.5001 3.50152C44.4816 3.50243 44.4693 3.50364 44.4615 3.50468L43.5049 4.46125C43.5039 4.46907 43.5026 4.48134 43.5017 4.49984C43.5009 4.51617 43.5005 4.53377 43.5003 4.55447L44.1667 6.70179L44.1667 6.7776C44.1667 6.99408 44.1157 7.26063 44.0198 7.50027C43.9318 7.72027 43.7648 8.02077 43.4617 8.17963L41.6417 9.22955C41.6407 9.23292 41.6398 9.23643 41.6388 9.2401C41.6099 9.34635 41.5832 9.50152 41.561 9.68103Z" fill="#00C5FF"/>
<path d="M34.0635 54.2061L36.416 51.2734L33 50.3066L33.6445 48.416L36.9961 49.748L36.792 45.999H38.876L38.6504 49.8232L41.9375 48.502L42.5713 50.4248L39.1016 51.3916L41.3789 54.2598L39.6924 55.4414L37.7158 52.3047L35.75 55.3447L34.0635 54.2061Z" fill="#00C5FF"/>
<path d="M44.4037 54.2061L46.7563 51.2734L43.3402 50.3066L43.9848 48.416L47.3363 49.748L47.1322 45.999H49.2162L48.9906 49.8232L52.2777 48.502L52.9115 50.4248L49.4418 51.3916L51.7191 54.2598L50.0326 55.4414L48.0561 52.3047L46.0902 55.3447L44.4037 54.2061Z" fill="#00C5FF"/>
<path d="M54.7439 54.2061L57.0965 51.2734L53.6805 50.3066L54.325 48.416L57.6766 49.748L57.4725 45.999H59.5564L59.3309 49.8232L62.618 48.502L63.2518 50.4248L59.782 51.3916L62.0594 54.2598L60.3729 55.4414L58.3963 52.3047L56.4305 55.3447L54.7439 54.2061Z" fill="#00C5FF"/>
<path d="M65.0842 54.2061L67.4367 51.2734L64.0207 50.3066L64.6652 48.416L68.0168 49.748L67.8127 45.999H69.8967L69.6711 49.8232L72.9582 48.502L73.592 50.4248L70.1223 51.3916L72.3996 54.2598L70.7131 55.4414L68.7365 52.3047L66.7707 55.3447L65.0842 54.2061Z" fill="#00C5FF"/>
</svg>
